src/icons/left-nav/asset_management_active.svg

<svg width="20" height="20" viewBox="0 0 20 20" fill="none" xmlns="http://www.w3.org/2000/svg"><path fill-rule="evenodd" clip-rule="evenodd" d="M1.875 4.375C1.875 3.71196 2.13839 3.07607 2.60723 2.60723C3.07607 2.13839 3.71196 1.875 4.375 1.875H15.625C16.288 1.875 16.9239 2.13839 17.3928 2.60723C17.8616 3.07607 18.125 3.71196 18.125 4.375V12.5C18.125 13.163 17.8616 13.7989 17.3928 14.2678C16.9239 14.7366 16.288 15 15.625 15H13.125V15.2142C13.125 15.7117 13.3225 16.1892 13.6742 16.54L14.1917 17.0583C14.279 17.1457 14.3384 17.2571 14.3625 17.3782C14.3865 17.4994 14.3742 17.625 14.3269 17.7391C14.2796 17.8532 14.1996 17.9508 14.0969 18.0195C13.9943 18.0882 13.8735 18.1249 13.75 18.125H6.25C6.12647 18.1249 6.00574 18.0882 5.90306 18.0195C5.80038 17.9508 5.72035 17.8532 5.67309 17.7391C5.62583 17.625 5.61346 17.4994 5.63753 17.3782C5.6616 17.2571 5.72104 17.1457 5.80833 17.0583L6.32583 16.54C6.67726 16.1886 6.87478 15.712 6.875 15.215V15H4.375C3.71196 15 3.07607 14.7366 2.60723 14.2678C2.13839 13.7989 1.875 13.163 1.875 12.5V4.375ZM3.125 4.375V10.625C3.125 10.9565 3.2567 11.2745 3.49112 11.5089C3.72554 11.7433 4.04348 11.875 4.375 11.875H15.625C15.9565 11.875 16.2745 11.7433 16.5089 11.5089C16.7433 11.2745 16.875 10.9565 16.875 10.625V4.375C16.875 4.04348 16.7433 3.72554 16.5089 3.49112C16.2745 3.2567 15.9565 3.125 15.625 3.125H4.375C4.04348 3.125 3.72554 3.2567 3.49112 3.49112C3.2567 3.72554 3.125 4.04348 3.125 4.375Z" fill="#fafafa"></path></svg>

<svg xmlns="http://www.w3.org/2000/svg" width="20" height="20" fill="none"><path fill="#fafafa" fill-rule="evenodd" d="M1.875 4.375a2.5 2.5 0 0 1 2.5-2.5h11.25a2.5 2.5 0 0 1 2.5 2.5V12.5a2.5 2.5 0 0 1-2.5 2.5h-2.5v.214c0 .498.197.975.55 1.326l.517.518a.625.625 0 0 1-.442 1.067h-7.5a.625.625 0 0 1-.442-1.067l.518-.518c.351-.351.549-.828.549-1.325V15h-2.5a2.5 2.5 0 0 1-2.5-2.5V4.375Zm1.25 0v6.25a1.25 1.25 0 0 0 1.25 1.25h11.25a1.25 1.25 0 0 0 1.25-1.25v-6.25a1.25 1.25 0 0 0-1.25-1.25H4.375a1.25 1.25 0 0 0-1.25 1.25Z" clip-rule="evenodd"/></svg>
